packages/assets/static/images/icons/stack-plus.svg

<svg width="24" height="24" viewBox="0 0 24 24" xmlns="http://www.w3.org/2000/svg">
<path d="M21.2728 11.6254C21.3718 11.7973 21.3987 12.0015 21.3476 12.1932C21.2965 12.3849 21.1714 12.5485 20.9999 12.6482L11.9999 17.8982C11.8853 17.9651 11.7549 18.0003 11.6221 18.0003C11.4894 18.0003 11.359 17.9651 11.2443 17.8982L2.24431 12.6482C2.07528 12.5466 1.95305 12.3826 1.9041 12.1915C1.85514 12.0005 1.8834 11.7979 1.98275 11.6275C2.0821 11.4572 2.24456 11.3328 2.43493 11.2813C2.62531 11.2299 2.8283 11.2555 2.99994 11.3526L11.6249 16.3823L20.2499 11.3526C20.4218 11.2535 20.626 11.2266 20.8177 11.2778C21.0094 11.3289 21.173 11.4539 21.2728 11.6254ZM1.87494 7.50041C1.87524 7.36905 1.91003 7.24007 1.97585 7.12638C2.04166 7.01269 2.13617 6.91828 2.24994 6.8526L11.2499 1.6026C11.3646 1.53573 11.495 1.50049 11.6278 1.50049C11.7605 1.50049 11.8909 1.53573 12.0056 1.6026L21.0056 6.8526C21.1188 6.91865 21.2127 7.01322 21.278 7.12689C21.3433 7.24055 21.3776 7.36934 21.3776 7.50041C21.3776 7.63149 21.3433 7.76028 21.278 7.87394C21.2127 7.9876 21.1188 8.08217 21.0056 8.14823L12.0056 13.3982C11.8909 13.4651 11.7605 13.5003 11.6278 13.5003C11.495 13.5003 11.3646 13.4651 11.2499 13.3982L2.24994 8.14823C2.13617 8.08255 2.04166 7.98814 1.97585 7.87445C1.91003 7.76076 1.87524 7.63178 1.87494 7.50041ZM4.11369 7.50041L11.6249 11.8823L19.1362 7.50041L11.6249 3.11854L4.11369 7.50041ZM21.3749 18.0004H19.8749V16.5004C19.8749 16.3015 19.7959 16.1107 19.6553 15.9701C19.5146 15.8294 19.3239 15.7504 19.1249 15.7504C18.926 15.7504 18.7353 15.8294 18.5946 15.9701C18.454 16.1107 18.3749 16.3015 18.3749 16.5004V18.0004H16.8749C16.676 18.0004 16.4853 18.0794 16.3446 18.2201C16.204 18.3607 16.1249 18.5515 16.1249 18.7504C16.1249 18.9493 16.204 19.1401 16.3446 19.2807C16.4853 19.4214 16.676 19.5004 16.8749 19.5004H18.3749V21.0004C18.3749 21.1993 18.454 21.3901 18.5946 21.5307C18.7353 21.6714 18.926 21.7504 19.1249 21.7504C19.3239 21.7504 19.5146 21.6714 19.6553 21.5307C19.7959 21.3901 19.8749 21.1993 19.8749 21.0004V19.5004H21.3749C21.5739 19.5004 21.7646 19.4214 21.9053 19.2807C22.0459 19.1401 22.1249 18.9493 22.1249 18.7504C22.1249 18.5515 22.0459 18.3607 21.9053 18.2201C21.7646 18.0794 21.5739 18.0004 21.3749 18.0004ZM12.7499 20.2279L11.6249 20.8842L2.99994 15.8526C2.82917 15.7676 2.63241 15.7508 2.44973 15.8057C2.26704 15.8607 2.11214 15.9831 2.01657 16.1482C1.921 16.3133 1.89193 16.5087 1.93529 16.6944C1.97864 16.8802 2.09116 17.0425 2.24994 17.1482L11.2499 22.3982C11.3646 22.4651 11.495 22.5003 11.6278 22.5003C11.7605 22.5003 11.8909 22.4651 12.0056 22.3982L13.5056 21.5235C13.592 21.4746 13.6679 21.409 13.7288 21.3306C13.7897 21.2521 13.8344 21.1623 13.8603 21.0665C13.8862 20.9706 13.8928 20.8705 13.8797 20.7721C13.8666 20.6736 13.8341 20.5787 13.7841 20.4929C13.7341 20.4071 13.6675 20.3321 13.5882 20.2723C13.509 20.2124 13.4186 20.1689 13.3224 20.1442C13.2262 20.1196 13.1261 20.1143 13.0278 20.1287C12.9295 20.143 12.8351 20.1768 12.7499 20.2279Z"/>
</svg>

<svg viewBox="0 0 24 24" xmlns="http://www.w3.org/2000/svg" aria-hidden="true" fill="currentColor"><path d="M21.273 11.625A.75.75 0 0 1 21 12.648l-9 5.25a.75.75 0 0 1-.756 0l-9-5.25A.75.75 0 0 1 3 11.353l8.625 5.03 8.625-5.03a.75.75 0 0 1 1.023.272M1.875 7.5a.75.75 0 0 1 .375-.647l9-5.25a.75.75 0 0 1 .756 0l9 5.25a.75.75 0 0 1 0 1.295l-9 5.25a.75.75 0 0 1-.756 0l-9-5.25a.75.75 0 0 1-.375-.648m2.239 0 7.51 4.382L19.137 7.5l-7.512-4.38zM21.374 18h-1.5v-1.5a.75.75 0 1 0-1.5 0V18h-1.5a.75.75 0 0 0 0 1.5h1.5V21a.75.75 0 0 0 1.5 0v-1.5h1.5a.75.75 0 1 0 0-1.5m-8.624 2.228-1.125.656L3 15.853a.75.75 0 0 0-.75 1.295l9 5.25a.75.75 0 0 0 .756 0l1.5-.875a.751.751 0 0 0-.478-1.394.8.8 0 0 0-.278.099"/></svg>
